svgs/duotone/phone-office.svg

<svg xmlns="http://www.w3.org/2000/svg" viewBox="0 0 576 512"><!--! Font Awesome Pro 6.3.0 by @fontawesome - https://fontawesome.com License - https://fontawesome.com/license (Commercial License) Copyright 2023 Fonticons, Inc. --><defs><style>.fa-secondary{opacity:.4}</style></defs><path class="fa-primary" d="M528 32H224v352c0 17.62-14.38 32-32 32H96c-17.62 0-32-14.38-32-32V32H48C21.5 32 0 53.5 0 80v384C0 490.5 21.5 512 48 512h480c26.5 0 48-21.5 48-48v-384C576 53.5 554.5 32 528 32zM384 432c0 8.875-7.125 16-16 16h-32c-8.875 0-16-7.125-16-16v-32c0-8.875 7.125-16 16-16h32c8.875 0 16 7.125 16 16V432zM384 304c0 8.875-7.125 16-16 16h-32C327.1 320 320 312.9 320 304v-32C320 263.1 327.1 256 336 256h32C376.9 256 384 263.1 384 272V304zM512 432c0 8.875-7.125 16-16 16h-32c-8.875 0-16-7.125-16-16v-32c0-8.875 7.125-16 16-16h32c8.875 0 16 7.125 16 16V432zM512 304c0 8.875-7.125 16-16 16h-32C455.1 320 448 312.9 448 304v-32C448 263.1 455.1 256 464 256h32C504.9 256 512 263.1 512 272V304zM512 192h-192V96h192V192z"/><path class="fa-secondary" d="M192 0H96C78.38 0 64 14.38 64 32v352c0 17.62 14.38 32 32 32h96c17.62 0 32-14.38 32-32V32C224 14.38 209.6 0 192 0zM368 384h-32c-8.875 0-16 7.125-16 16v32c0 8.875 7.125 16 16 16h32c8.875 0 16-7.125 16-16v-32C384 391.1 376.9 384 368 384zM368 256h-32C327.1 256 320 263.1 320 272v32c0 8.875 7.125 16 16 16h32c8.875 0 16-7.125 16-16v-32C384 263.1 376.9 256 368 256zM496 384h-32c-8.875 0-16 7.125-16 16v32c0 8.875 7.125 16 16 16h32c8.875 0 16-7.125 16-16v-32C512 391.1 504.9 384 496 384zM496 256h-32C455.1 256 448 263.1 448 272v32c0 8.875 7.125 16 16 16h32c8.875 0 16-7.125 16-16v-32C512 263.1 504.9 256 496 256z"/></svg>

<svg xmlns="http://www.w3.org/2000/svg" viewBox="0 0 576 512"><!-- Font Awesome Pro 6.0.0-alpha2 by @fontawesome - https://fontawesome.com License - https://fontawesome.com/license (Commercial License) --><defs><style>.fa-secondary{opacity:.4}</style></defs><path d="M192 0H96C78.375 0 64 14.375 64 32V384C64 401.625 78.375 416 96 416H192C209.625 416 224 401.625 224 384V32C224 14.375 209.625 0 192 0ZM368 384H336C327.125 384 320 391.125 320 400V432C320 440.875 327.125 448 336 448H368C376.875 448 384 440.875 384 432V400C384 391.125 376.875 384 368 384ZM368 256H336C327.125 256 320 263.125 320 272V304C320 312.875 327.125 320 336 320H368C376.875 320 384 312.875 384 304V272C384 263.125 376.875 256 368 256ZM496 384H464C455.125 384 448 391.125 448 400V432C448 440.875 455.125 448 464 448H496C504.875 448 512 440.875 512 432V400C512 391.125 504.875 384 496 384ZM496 256H464C455.125 256 448 263.125 448 272V304C448 312.875 455.125 320 464 320H496C504.875 320 512 312.875 512 304V272C512 263.125 504.875 256 496 256Z" class="fa-secondary"/><path d="M528 32H224V384C224 401.625 209.625 416 192 416H96C78.375 416 64 401.625 64 384V32H48C21.5 32 0 53.5 0 80V464C0 490.5 21.5 512 48 512H528C554.5 512 576 490.5 576 464V80C576 53.5 554.5 32 528 32ZM384 432C384 440.875 376.875 448 368 448H336C327.125 448 320 440.875 320 432V400C320 391.125 327.125 384 336 384H368C376.875 384 384 391.125 384 400V432ZM384 304C384 312.875 376.875 320 368 320H336C327.125 320 320 312.875 320 304V272C320 263.125 327.125 256 336 256H368C376.875 256 384 263.125 384 272V304ZM512 432C512 440.875 504.875 448 496 448H464C455.125 448 448 440.875 448 432V400C448 391.125 455.125 384 464 384H496C504.875 384 512 391.125 512 400V432ZM512 304C512 312.875 504.875 320 496 320H464C455.125 320 448 312.875 448 304V272C448 263.125 455.125 256 464 256H496C504.875 256 512 263.125 512 272V304ZM512 192H320V96H512V192Z" class="fa-primary"/></svg>
